svgs/sharp-thin/grid-2.svg

<svg xmlns="http://www.w3.org/2000/svg" viewBox="0 0 512 512"><!--! Font Awesome Pro 6.6.0 by @fontawesome - https://fontawesome.com License - https://fontawesome.com/license (Commercial License) Copyright 2024 Fonticons, Inc. --><path d="M48 48l0 160 160 0 0-160L48 48zM32 32l16 0 160 0 16 0 0 16 0 160 0 16-16 0L48 224l-16 0 0-16L32 48l0-16zM48 304l0 160 160 0 0-160L48 304zM32 288l16 0 160 0 16 0 0 16 0 160 0 16-16 0L48 480l-16 0 0-16 0-160 0-16zM464 48L304 48l0 160 160 0 0-160zM304 32l160 0 16 0 0 16 0 160 0 16-16 0-160 0-16 0 0-16 0-160 0-16 16 0zm0 272l0 160 160 0 0-160-160 0zm-16-16l16 0 160 0 16 0 0 16 0 160 0 16-16 0-160 0-16 0 0-16 0-160 0-16z"/></svg>

<svg xmlns="http://www.w3.org/2000/svg" viewBox="0 0 512 512"><!--! Font Awesome Pro 6.5.2 by @fontawesome - https://fontawesome.com License - https://fontawesome.com/license (Commercial License) Copyright 2024 Fonticons, Inc. --><path d="M48 48V208H208V48H48zM32 32H48 208h16V48 208v16H208 48 32V208 48 32zM48 304V464H208V304H48zM32 288H48 208h16v16V464v16H208 48 32V464 304 288zM464 48H304V208H464V48zM304 32H464h16V48 208v16H464 304 288V208 48 32h16zm0 272V464H464V304H304zm-16-16h16H464h16v16V464v16H464 304 288V464 304 288z"/></svg>
